X: 16853
T: Harvest Storm
R: reel
M: 4/4
K: Dmajor
|:"D"A3 B ADFA|"G"BDcD dcBd|"D"(3AAA AB ADFD|"A"CDEF GBdB|
"D"A2 AB ADFA|"G"BG (3GGG dcBd|"D" (3AAA AB ADFD|1 "A"CDEF GABG:|2 "A"CDEF GABc||
|:"D"d2 ce dAFA|dD (3DDD ADFA|(3ded ce dAFD|"A"CDEF GABc|
"D"d2 ce dAFA|dD (3DDD ADFA|dDcD BDAF|1 "A"GFEF GABc:|2 "A"GFEF GBdB||

